X:1
T: A Lady Fair, S. 34
N: I0500
O: Irland
S: O BOYLE, Sean: 25 Irish Folksongs, Dublin 1976]
R: Brautwerbung, Standesunterschied]
M: 3/4
L: 1/16
K: D
A2G2E2 | D3E=F2G2A2B2 | =c2d4
eedcAG | A3GE2G2E2D2 | =C6
A2G2E2 | D3E=F2G2A2B2 | =c2d4
eedcAG | A4G2EED2D2 | D6
G2A2d2 | d4A2B2=c2B2 | =c2d4
c2A2A2 | A4G2E2D2D2 | =C6
A2G2E2 | D3E=F2G2A2B2 | =c2d4
e2dcAG | AA2AG2E2D2D2 | D6

@@@ Tune index: 7276
